localPackages/DesignSystem/Sources/DesignSystem/Resources/Assets.xcassets/IconSet/ic-folder-plus.imageset/ic-folder-plus.svg

<svg width="24" height="24" viewBox="0 0 24 24" fill="none" xmlns="http://www.w3.org/2000/svg">
<g id="ic-folder-plus">
<path id="Icon" fill-rule="evenodd" clip-rule="evenodd" d="M21 18V8.25C21 7.42157 20.3284 6.75 19.5 6.75H12.85C12.4605 6.75 12.0816 6.62368 11.77 6.39L9.65 4.8C9.39036 4.60527 9.07456 4.5 8.75 4.5H4.5C3.67157 4.5 3 5.17157 3 6V18C3 18.8284 3.67157 19.5 4.5 19.5H19.5C20.3284 19.5 21 18.8284 21 18ZM4.5 3C2.84315 3 1.5 4.34315 1.5 6V18C1.5 19.6569 2.84315 21 4.5 21H19.5C21.1569 21 22.5 19.6569 22.5 18V8.25C22.5 6.59315 21.1569 5.25 19.5 5.25H12.85C12.7851 5.25 12.7219 5.22895 12.67 5.19L10.55 3.6C10.0307 3.21053 9.39911 3 8.75 3H4.5ZM12 9C12.4142 9 12.75 9.33579 12.75 9.75V12H15C15.4142 12 15.75 12.3358 15.75 12.75C15.75 13.1642 15.4142 13.5 15 13.5H12.75V15.75C12.75 16.1642 12.4142 16.5 12 16.5C11.5858 16.5 11.25 16.1642 11.25 15.75V13.5H9C8.58579 13.5 8.25 13.1642 8.25 12.75C8.25 12.3358 8.58579 12 9 12H11.25V9.75C11.25 9.33579 11.5858 9 12 9Z" fill="#0F0F0F"/>
</g>
</svg>

<svg xmlns="http://www.w3.org/2000/svg" width="24" height="24" viewBox="0 0 24 24">
  <g class="ic-folder-plus">
    <path fill-rule="evenodd" d="M21 18V8.25a1.5 1.5 0 0 0-1.5-1.5h-6.65a1.8 1.8 0 0 1-1.08-.36L9.65 4.8a1.5 1.5 0 0 0-.9-.3H4.5A1.5 1.5 0 0 0 3 6v12a1.5 1.5 0 0 0 1.5 1.5h15A1.5 1.5 0 0 0 21 18ZM4.5 3a3 3 0 0 0-3 3v12a3 3 0 0 0 3 3h15a3 3 0 0 0 3-3V8.25a3 3 0 0 0-3-3h-6.65a.3.3 0 0 1-.18-.06L10.55 3.6a3 3 0 0 0-1.8-.6H4.5ZM12 9a.75.75 0 0 1 .75.75V12H15a.75.75 0 0 1 0 1.5h-2.25v2.25a.75.75 0 0 1-1.5 0V13.5H9A.75.75 0 0 1 9 12h2.25V9.75A.75.75 0 0 1 12 9Z" class="Icon"/>
  </g>
</svg>
